svgs/sharp-light/folder-open.svg

<svg xmlns="http://www.w3.org/2000/svg" viewBox="0 0 576 512"><!--! Font Awesome Pro 6.6.0 by @fontawesome - https://fontawesome.com License - https://fontawesome.com/license (Commercial License) Copyright 2024 Fonticons, Inc. --><path d="M272 96L208 32 32 32 0 32 0 64 0 448l0 32 32 0 3.8 0L384 480l64 0L560 256l16-32-35.8 0L128 224 32 416 32 64l162.7 0 54.6 54.6 9.4 9.4 13.3 0 176 0 0 64 32 0 0-64 0-32-32 0L272 96zM51.8 448l96-192 376.4 0-96 192L384 448 51.8 448z"/></svg>

<svg xmlns="http://www.w3.org/2000/svg" viewBox="0 0 576 512"><!--! Font Awesome Pro 6.4.0 by @fontawesome - https://fontawesome.com License - https://fontawesome.com/license (Commercial License) Copyright 2023 Fonticons, Inc. --><path d="M272 96L208 32H32 0V64 448v32H32h3.8H384h64L560 256l16-32H540.2 128L32 416V64H194.7l54.6 54.6 9.4 9.4H272 448v64h32V128 96H448 272zM51.8 448l96-192H524.2l-96 192H384 51.8z"/></svg>
